X:2297
T:Caillin veg dhoan 
T:My little brown girl - The storm is up
C:Traditional
O:Isle of Man
S:Collected by A.W.Moore 
N:In last bar, length of first two notes may have been transposed when collected. Shown transposed in A.W. Mooore version.
Z:Clague colllection (Possibly in Moore's "Manx Music")
B:Mona Melodies No.4
B:Kiaull Vannin #297 
M:4/4 
L:1/8 
Q:60 
K:G 
E|E2 G>A B3 c|B>G E2 E3 E|G2 A>B d3 e|d>B G2 A3 A| 
B>G B2 d3 e|d>B G2 A3 B|c3 A B3 A|B<G E2 E2|| 

